img/icons/Chart_Pie.svg

<svg width="24" height="24" viewBox="0 0 24 24" fill="none" xmlns="http://www.w3.org/2000/svg">
<path d="M17.2652 19.1783C17.6398 19.5841 18.2725 19.6094 18.6783 19.2348C19.0841 18.8602 19.1094 18.2275 18.7348 17.8217L17.2652 19.1783ZM12 12H11C11 12.2514 11.0947 12.4936 11.2652 12.6783L12 12ZM12 20C7.58172 20 4 16.4183 4 12H2C2 17.5228 6.47715 22 12 22V20ZM4 12C4 7.58172 7.58172 4 12 4V2C6.47715 2 2 6.47715 2 12H4ZM12 4C16.4183 4 20 7.58172 20 12H22C22 6.47715 17.5228 2 12 2V4ZM20 12C20 16.4183 16.4183 20 12 20V22C17.5228 22 22 17.5228 22 12H20ZM18.7348 17.8217L12.7348 11.3217L11.2652 12.6783L17.2652 19.1783L18.7348 17.8217ZM13 12V3H11V12H13ZM12 13H21V11H12V13Z" fill="#8C8D92"/>
</svg>

<svg width="24" height="24" fill="none" xmlns="http://www.w3.org/2000/svg"><path d="M17.265 19.178a1 1 0 0 0 1.47-1.356l-1.47 1.356ZM12 12h-1a1 1 0 0 0 .265.678L12 12Zm0 8a8 8 0 0 1-8-8H2c0 5.523 4.477 10 10 10v-2Zm-8-8a8 8 0 0 1 8-8V2C6.477 2 2 6.477 2 12h2Zm8-8a8 8 0 0 1 8 8h2c0-5.523-4.477-10-10-10v2Zm8 8a8 8 0 0 1-8 8v2c5.523 0 10-4.477 10-10h-2Zm-1.265 5.822-6-6.5-1.47 1.356 6 6.5 1.47-1.356ZM13 12V3h-2v9h2Zm-1 1h9v-2h-9v2Z" fill="#8C8D92"/></svg>
